X:1
T:Title
%%score { 1 | 2 }
L:1/8
M:4/4
K:Eb
V:1 treble nm="Grand Piano"
V:2 bass 
V:1
 z4 z2[Q:1/4=100] [EG][FA] | [GB]3 [GB] [Ge]2 [EGB]2 | [EAc]2 [Ece]4 [EBd][Ac] | %3
 [EGB]2 [B,FA]2 [B,EG]2 [B,EB]2 |[M:3/4] [DF]6 |[M:1/4] [B,EG][B,FA] | %6
[M:4/4] [B,GB]3 [B,GB] [Ge]2 [EGB]2 | [EAc]2 [Ece]4 [EBd][EAc] | [EGB]2 [G,E]2 [B,EG]3 [A,DF] | %9
[M:3/4] [G,E]6 |[M:1/4] [GB][GB] |[M:4/4] c3 c c2 e2 | [Ge]4 [EGB]2 [B,EG][B,FA] | %13
 [B,GB]2 [Ec]2 [B,EB]2 [B,EG]2 |[M:3/4] [DF]6 |[M:1/4] [B,EG][B,FA] | %16
[M:4/4] [B,GB]3 [B,GB] [EGB]2 [B,EG]2 | [CEA]2 [Ec]4 [Ec][Ec] | [EB]2 [G,E]2 [B,EG]3 [A,DF] | %19
[M:3/4] [G,E]6 |] %20
V:2
 z4 z2 [E,B,][E,B,] | [E,B,]3 [E,B,] [E,B,]2 E,2 | A,2 A,4 A,A, | E,2 D,2 E,2 G,2 |[M:3/4] B,6 | %5
[M:1/4] E,E, |[M:4/4] E,3 E, [E,B,]2 E,2 | A,2 A,4 A,,A,, | B,,2 B,,2 B,,3 B,, |[M:3/4] E,6 | %10
[M:1/4] [E,E][E,E] |[M:4/4][K:treble] [A,EA]3 [A,EA] [A,EA]2 [A,CA]2 | [E,B,]4 E,2 E,E, | %13
 E,2 A,2 G,2 E,2 |[M:3/4] B,6 |[M:1/4] E,E, |[M:4/4] E,3 E, E,2 E,2 | %17
 A,,2 [A,,A,]4 [A,,A,][A,,A,] | [B,,G,]2 B,,2 B,,3 B,, |[M:3/4] E,6 |] %20

